X: 651
T: Hollow Poplar
B: jims roots
M:2/4
L:1/8
Q: 1/4=100
K:G
V:1 
Bd || "G"g4 g2ga | gedc BGBd | "D"a2ab a2ab | aged BGBd |
"G"gfga g2ga | gedc BGAG | "D"FGAc BAGB | "G"AGGA G2 ||
D2 | "G"g4 g4 | dedc BGG2 | "C"c4 c4 | cedc BGG2 |
"G"G,B,DF G2Bd | gedc BGAG | "D"FGAc BAGB | "G"AGGA G2 ||
% abcbook-tune_id 6298c25de022776a327c21d5


% abcbook-boost 0
% abcbook-tablature 
% abcbook-transpose 
% abcbook-lastupdated 1654178398804
% abcbook-soundfonts 
% abcbook-repeats 1


